X:157
T:Old favourite, The
R:Jig
O:Ireland
M:6/8
K:G
B3 BAB|dBA G2B|ded d2B|ded B2A|\
B3 BAB|dBA G2B|ded cBA|G3 G3::\
g3 fgf|ege d2B|ded d2B|ded B2d|\
g3 fgf|efe d2B|1\
dge dBA|G3 G3:|2 dge dge|dge dBA||
